packages/sights/assets/overlays/jqJOb6Ov.svg

<svg width="500" height="375" viewBox="0 0 500 375" fill="none" xmlns="http://www.w3.org/2000/svg">
<path d="M7.04004 11.7391C7.04004 11.7391 158.81 -7.52093 242.73 19.0791C242.73 19.0791 275.52 36.2791 321.15 71.8191C321.15 71.8191 443.15 92.4491 476.15 131.889C476.15 131.889 483.95 156.889 481.88 162.619C481.88 162.619 492.99 188.759 492.99 201.619C492.99 201.619 489.68 268.619 461.25 310.769C461.25 310.769 402.55 340.769 380.99 341.259C380.99 341.259 344.99 343.099 340.41 341.259L337.96 340.259C339.03 325.259 333.83 297.979 333.83 297.979C329.63 276.309 313.57 252.679 288.83 235.149C261.02 215.459 229.58 208.689 206.83 215.249C206.83 215.249 169.14 225.919 190.69 271.549L193.22 275.899L7.04004 185.479" stroke="white" stroke-miterlimit="10"/>
<path d="M299.581 344.257C314.442 330.208 307.317 298.536 283.665 273.517C260.013 248.497 228.792 239.604 213.93 253.653C199.069 267.702 206.194 299.373 229.846 324.393C253.498 349.413 284.719 358.306 299.581 344.257Z" stroke="white" stroke-miterlimit="10"/>
<path d="M337.25 321.399L322.04 348.539C321.61 349.079 321.15 349.599 320.69 350.109C301.69 370.789 260.69 364.049 229.08 335.059C198.76 307.269 188.92 269.129 202.08 244.359C205.554 238.952 210.173 234.375 215.61 230.949L239.48 214.059" stroke="white" stroke-miterlimit="10"/>
<path d="M32.13 197.679C31.261 200.055 29.8304 202.186 27.96 203.889L7.04004 211.379" stroke="white" stroke-miterlimit="10"/>
<path d="M250.04 23.1393C226.58 14.9793 114.14 27.1393 114.14 27.1393C114.14 27.1393 167.04 81.4493 186.94 109.599L202.22 114.799C202.22 114.799 286.61 116.329 335.52 81.1693L334.91 78.4193C334.91 78.4193 331.4 74.1093 322.38 72.0593" stroke="white" stroke-miterlimit="10"/>
<path d="M7.04004 19.3093C7.04004 19.3093 74.43 9.90935 101.94 35.5993C101.94 35.5993 118.94 45.3994 167.07 114.789C167.07 114.789 169.13 121.129 167.98 123.879" stroke="white" stroke-miterlimit="10"/>
<path d="M139.09 110.599L143.33 97.8691C143.33 97.8691 127.63 85.2591 118.8 83.0791C113.437 82.4384 107.998 83.15 102.98 85.1491C102.98 85.1491 82.9102 91.6491 76.4902 98.2991C76.4902 98.2991 81.8802 115.609 89.6802 116.869C89.6802 116.869 93.4602 117.679 110.89 117.869C110.89 117.869 142.19 117.639 147.58 119.129L168.22 122.949" stroke="white" stroke-miterlimit="10"/>
<path d="M80.5303 107.809C87.8566 110.019 95.4416 111.256 103.09 111.489L141.15 110.219L167.04 114.779" stroke="white" stroke-miterlimit="10"/>
<path d="M7 77.1689L76.49 98.2989" stroke="white" stroke-miterlimit="10"/>
<path d="M42.3403 17.749C42.3403 17.749 37.2703 66.309 41.7503 84.429L36.8203 91.989C36.8203 91.989 35.9103 110.989 34.5303 112.859C34.5303 112.859 42.7903 158.259 51.9603 179.359C51.9603 179.359 53.4203 205.599 56.1303 209.359" stroke="white" stroke-miterlimit="10"/>
<path d="M7 170.419L184.39 251.479" stroke="white" stroke-miterlimit="10"/>
<path d="M140.7 78.459C139.102 83.2091 137.806 88.0554 136.82 92.969" stroke="white" stroke-miterlimit="10"/>
<path d="M480.51 148.149C475.68 186.149 455.75 197.469 455.75 197.469L383.52 208.939C378.25 210.309 337.25 205.499 337.25 205.499L328.49 206.599L330.02 214.019C330.02 214.019 348.67 238.549 361.51 243.449C361.51 243.449 402.17 248.339 441.61 240.689L463.01 248.029C463.01 248.029 486.92 222.199 485.01 170.379" stroke="white" stroke-miterlimit="10"/>
<path d="M455.75 197.469L457.51 203.469C457.51 203.469 446.51 237.719 441.61 240.769" stroke="white" stroke-miterlimit="10"/>
<path d="M200.83 114.299L199.63 116.759L212.04 136.249C212.04 136.249 365.9 186.699 383.55 208.939" stroke="white" stroke-miterlimit="10"/>
</svg>

<svg width="500" height="375" fill="none" xmlns="http://www.w3.org/2000/svg"><path d="M7.04 11.74s151.77-19.26 235.69 7.34c0 0 32.79 17.2 78.42 52.74 0 0 122 20.63 155 60.069 0 0 7.8 25 5.73 30.73 0 0 11.11 26.14 11.11 39 0 0-3.31 67-31.74 109.15 0 0-58.7 30-80.26 30.49 0 0-36 1.84-40.58 0l-2.45-1c1.07-15-4.13-42.28-4.13-42.28-4.2-21.67-20.26-45.3-45-62.83-27.81-19.69-59.25-26.46-82-19.9 0 0-37.69 10.67-16.14 56.3l2.53 4.35-186.18-90.42" stroke="#fff" stroke-miterlimit="10"/><path d="M299.581 344.257c14.861-14.049 7.736-45.721-15.916-70.74-23.652-25.02-54.873-33.913-69.735-19.864-14.861 14.049-7.736 45.72 15.916 70.74 23.652 25.02 54.873 33.913 69.735 19.864Z" stroke="#fff" stroke-miterlimit="10"/><path d="m337.25 321.399-15.21 27.14c-.43.54-.89 1.06-1.35 1.57-19 20.68-60 13.94-91.61-15.05-30.32-27.79-40.16-65.93-27-90.7a43.897 43.897 0 0 1 13.53-13.41l23.87-16.89M32.13 197.679a15.685 15.685 0 0 1-4.17 6.21l-20.92 7.49M250.04 23.14c-23.46-8.16-135.9 4-135.9 4s52.9 54.31 72.8 82.459l15.28 5.2s84.39 1.53 133.3-33.63l-.61-2.75s-3.51-4.31-12.53-6.36M7.04 19.31s67.39-9.4 94.9 16.29c0 0 17 9.8 65.13 79.189 0 0 2.06 6.34.91 9.09" stroke="#fff" stroke-miterlimit="10"/><path d="m139.09 110.599 4.24-12.73s-15.7-12.61-24.53-14.79a32.372 32.372 0 0 0-15.82 2.07s-20.07 6.5-26.49 13.15c0 0 5.39 17.31 13.19 18.57 0 0 3.78.81 21.21 1 0 0 31.3-.23 36.69 1.26l20.64 3.82" stroke="#fff" stroke-miterlimit="10"/><path d="M80.53 107.809a87.323 87.323 0 0 0 22.56 3.68l38.06-1.27 25.89 4.56M7 77.169l69.49 21.13M42.34 17.749s-5.07 48.56-.59 66.68l-4.93 7.56s-.91 19-2.29 20.87c0 0 8.26 45.4 17.43 66.5 0 0 1.46 26.24 4.17 30M7 170.419l177.39 81.06M140.7 78.459a118.828 118.828 0 0 0-3.88 14.51M480.51 148.149c-4.83 38-24.76 49.32-24.76 49.32l-72.23 11.47c-5.27 1.37-46.27-3.44-46.27-3.44l-8.76 1.1 1.53 7.42s18.65 24.53 31.49 29.43c0 0 40.66 4.89 80.1-2.76l21.4 7.34s23.91-25.83 22-77.65" stroke="#fff" stroke-miterlimit="10"/><path d="m455.75 197.469 1.76 6s-11 34.25-15.9 37.3M200.83 114.299l-1.2 2.46 12.41 19.49s153.86 50.45 171.51 72.69" stroke="#fff" stroke-miterlimit="10"/></svg>
